shader_type spatial;
render_mode cull_disabled;

uniform vec3 background : source_color;
uniform sampler2D texture_albedo : hint_default_white, filter_linear_mipmap_anisotropic;

void fragment() {
  vec4 tex_color = texture(texture_albedo, UV);
  ALBEDO = mix(background, tex_color.rgb, tex_color.a);
}
